X:1
T:The Hollow of God’s Hand
T:The Hollow of God’s Hand
T:Edmund Simon Lorenz
T:Edmund Simon Lorenz, 1890
T:Public Domain Courtesy of the Cyber Hymnal™
C:Edmund Simon Lorenz
Z:Public Domain
Z:Courtesy of the Cyber Hymnal™
%%score ( 1 2 ) ( 3 4 )
L:1/8
Q:1/4=100
M:4/4
K:C
V:1 treble 
V:2 treble 
V:3 bass 
V:4 bass 
V:1
 C[CE] | [EG]2 [EG]2 [CF][CE][CD]C | [CA]2 [Fc]4 [GB][FA] | [EG]2 [EG]2 [FA][EG][DF][CE] | %4
w: 1.~I am|safe, what- ev- er may be-|tide me; I am|safe, who- ev- er may de-|
w: 2.~What tho’|fierce the stor- my blasts roar|round me; What tho’|sore life’s tri- als oft con-|
w: 3.~Ev- er-|last- ing arms of love en-|fold me; Words of|peace the voice di- vine has|
 [CE]2 [B,D]4 C[CE] | [EG]2 [EG]2 [CF][CE][CD]C | [CA]2 [Fc]4 [GB][FA] | [EG] [Ec]3 [Fd]2 [DB]2 | %8
w: ride me; I am|safe, as long as I con-|fide me In the|hol- low of God’s|
w: found me; I am|safe, for naught of ill can|wound me In the|hol- low of God’s|
w: told me; I am|safe, while God Him- self doth|hold me, In the|hol- low of His|
 [Ec]6 ||"^Refrain" [EG][Ec] | [DB] d4- [Gd][Gc][Gd] | [Ge]6 [Ec][GB] | [FA] c4- [=Fc][Fd][Fe] | %13
w: hand.|In the|hol- low of His hand!|* In the|hol- low of His hand!|
w: hand.|||||
w: hand.|||||
 [Gd]6 [Ge][Fd] | [Ec]2 [EG]2 [CF][CE][CD]C | [CA]2 [Fc]4 [GB][FA] | [EG] [Ec]3 [Fd]2 [DB]2 | %17
w: * I am|safe while God Him- self doth|hold me In the|hol- low of His|
w: ||||
w: ||||
 [Ec]6 |] %18
w: hand.|
w: |
w: |
V:2
 C x | x7 C | x8 | x8 | x6 C x | x7 C | x8 | x8 | x6 || x2 | x F F F G x3 | x8 | x A A A ^F x3 | %13
 x8 | x7 C | x8 | x8 | x6 |] %18
V:3
 [C,E,][C,G,] | [C,C]2 [C,_B,]2 [C,B,][C,G,][C,F,][C,E,] | F,2 [F,A,]4 [F,C][F,C] | %3
w: ~ ~|~ ~ ~ ~ ~ ~|~ ~ ~ ~|
 [C,C]2 [C,C]2 [C,C][C,C][C,G,][C,G,] | [G,,G,]2 [G,,G,]4 [C,E,][C,G,] | %5
w: ~ ~ ~ ~ ~ ~|~ ~ ~ ~|
 [C,C]2 [C,_B,]2 [C,A,][C,G,][C,F,][C,E,] | F,2 [F,A,]4 [F,C][F,C] | %7
w: ~ ~ ~ ~ ~ ~|~ ~ ~ ~|
 [G,C] [G,C]3 [G,B,]2 [G,,G,]2 | [C,G,]6 || z2 | z2 [G,B,][G,B,] [G,B,][F,B,][E,C][G,B,] | %11
w: ~ ~ ~ ~|~||In the hol- low, in the|
 CCCC C2 z2 | z2 [F,C][F,A,] [D,A,][D,A,][D,B,][D,C] | %13
w: hol- low of His hand!|In the hol- low, in the|
 [G,B,][G,B,][G,B,][G,B,] [G,B,]2 [G,B,][G,B,] | [C,C]2 [C,_B,]2 [C,A,][C,G,][C,F,][C,E,] | %15
w: hol- low of His hand! * *||
 F,2 [F,A,]4 [F,C][F,C] | [G,C] [G,C]3 [G,B,]2 [G,,G,]2 | [C,G,]6 |] %18
w: |||
V:4
 x2 | x8 | F,2 x6 | x8 | x8 | x8 | F,2 x6 | x8 | x6 || x2 | x8 | CCCC C2 x2 | x8 | x8 | x8 | %15
 F,2 x6 | x8 | x6 |] %18

